img/svg/software-licenses/clipboard-check.svg

<svg width="24" height="24" viewBox="0 0 24 24" fill="none" xmlns="http://www.w3.org/2000/svg">
<path d="M15.9279 11.073L15.927 11.0721C15.9038 11.0488 15.8762 11.0304 15.8458 11.0178L16.0374 10.5559L15.8458 11.0177C15.8154 11.0051 15.7829 10.9987 15.75 10.9987C15.7171 10.9987 15.6846 11.0051 15.6542 11.0177L15.4626 10.5559L15.6542 11.0178C15.6238 11.0304 15.5962 11.0488 15.573 11.0721L15.5726 11.0725L11.6036 15.043L11.2499 15.3968L10.8963 15.0429L9.17745 13.3226C9.17741 13.3225 9.17738 13.3225 9.17735 13.3225C9.17733 13.3224 9.17731 13.3224 9.17729 13.3224C9.15402 13.2992 9.12641 13.2807 9.09604 13.2682L9.28738 12.8062L9.09603 13.2682C9.06559 13.2555 9.03296 13.2491 9 13.2491C8.93344 13.2491 8.86961 13.2755 8.82255 13.3226C8.79925 13.3459 8.78077 13.3735 8.76815 13.404C8.75554 13.4344 8.74905 13.467 8.74905 13.5C8.74905 13.533 8.75554 13.5656 8.76815 13.596C8.78077 13.6265 8.79925 13.6541 8.82255 13.6774L11.0726 15.9274L11.073 15.9279C11.0962 15.9512 11.1238 15.9696 11.1542 15.9822C11.1542 15.9822 11.1542 15.9823 11.1542 15.9823L10.9625 16.4441C11.0537 16.4819 11.1513 16.5013 11.25 16.5013C11.3487 16.5013 11.4463 16.4819 11.5375 16.4441L15.9279 11.073ZM15.9279 11.073C15.9512 11.0962 15.9696 11.1238 15.9823 11.1542C15.9949 11.1846 16.0013 11.2171 16.0013 11.25C16.0013 11.2829 15.9949 11.3154 15.9822 11.3458C15.9696 11.3762 15.9512 11.4038 15.9279 11.427L15.9274 11.4274L11.4274 15.9274L11.427 15.9279C11.4038 15.9512 11.3762 15.9696 11.3458 15.9822L15.9279 11.073ZM16.4441 11.5375C16.4063 11.6286 16.3508 11.7113 16.281 11.781L16.4441 11.5375ZM16.4441 11.5375C16.4819 11.4463 16.5013 11.3487 16.5013 11.25C16.5013 11.1513 16.4819 11.0537 16.4441 10.9625V11.5375ZM15.1339 1.36612L14.7803 1.71967L15.1339 1.36612C14.8995 1.1317 14.5815 1 14.25 1H9.75C9.41848 1 9.10054 1.1317 8.86612 1.36612C8.6317 1.60054 8.5 1.91848 8.5 2.25V3.75C8.5 4.08152 8.6317 4.39946 8.86612 4.63388C9.10054 4.8683 9.41848 5 9.75 5H14.25C14.5815 5 14.8995 4.8683 15.1339 4.63388C15.3683 4.39946 15.5 4.08152 15.5 3.75V2.25C15.5 1.91848 15.3683 1.60054 15.1339 1.36612ZM3.08579 3.83579L3.43934 4.18934L3.08579 3.83579C2.71071 4.21086 2.5 4.71957 2.5 5.25V21C2.5 21.5304 2.71071 22.0391 3.08579 22.4142C3.46086 22.7893 3.96957 23 4.5 23H19.5C20.0304 23 20.5391 22.7893 20.9142 22.4142C21.2893 22.0391 21.5 21.5304 21.5 21V5.25C21.5 4.71957 21.2893 4.21086 20.9142 3.83579C20.5391 3.46071 20.0304 3.25 19.5 3.25H18.5V2.75H19.5C20.163 2.75 20.7989 3.01339 21.2678 3.48223C21.7366 3.95107 22 4.58696 22 5.25V21C22 21.663 21.7366 22.2989 21.2678 22.7678C20.7989 23.2366 20.163 23.5 19.5 23.5H4.5C3.83696 23.5 3.20107 23.2366 2.73223 22.7678C2.26339 22.2989 2 21.663 2 21V5.25C2 4.58696 2.26339 3.95107 2.73223 3.48223C3.20107 3.01339 3.83696 2.75 4.5 2.75H5.5V3.25H4.5C3.96957 3.25 3.46086 3.46071 3.08579 3.83579ZM15.4874 1.01256L15.841 0.65901L15.4874 1.01256C15.8156 1.34075 16 1.78587 16 2.25V3.75C16 4.21413 15.8156 4.65925 15.4874 4.98744C15.1592 5.31563 14.7141 5.5 14.25 5.5H9.75C9.28587 5.5 8.84075 5.31563 8.51256 4.98744C8.18437 4.65925 8 4.21413 8 3.75V2.25C8 1.78587 8.18437 1.34075 8.51256 1.01256C8.84075 0.684375 9.28587 0.5 9.75 0.5H14.25C14.7141 0.5 15.1592 0.684375 15.4874 1.01256Z" fill="#030303" stroke="#030303"/>
</svg>

<svg width="24" height="24" fill="none" xmlns="http://www.w3.org/2000/svg"><path d="M15.928 11.073h-.001a.249.249 0 00-.081-.055l.191-.462-.191.462a.25.25 0 00-.192 0l-.191-.462.191.462a.249.249 0 00-.081.054h0l-3.97 3.971-.353.354-.354-.354-1.719-1.72s0 0 0 0 0 0 0 0a.25.25 0 00-.081-.055l.191-.462-.191.462a.25.25 0 00-.273.055.25.25 0 000 .354l2.25 2.25h0c.023.024.05.043.081.055 0 0 0 0 0 0l-.191.462a.75.75 0 00.575 0l4.39-5.371zm0 0a.25.25 0 010 .354h0l-4.5 4.5h-.001a.249.249 0 01-.081.055l4.582-4.909zm.516.464a.751.751 0 01-.163.244l.163-.244zm0 0a.75.75 0 000-.575v.575zm-1.31-10.17l-.354.353.354-.354A1.25 1.25 0 0014.25 1h-4.5A1.25 1.25 0 008.5 2.25v1.5A1.25 1.25 0 009.75 5h4.5a1.25 1.25 0 001.25-1.25v-1.5c0-.332-.132-.65-.366-.884zM3.086 3.835l.353.353-.353-.353A2 2 0 002.5 5.25V21a2 2 0 002 2h15a2 2 0 002-2V5.25a2 2 0 00-2-2h-1v-.5h1a2.5 2.5 0 012.5 2.5V21a2.5 2.5 0 01-2.5 2.5h-15A2.5 2.5 0 012 21V5.25a2.5 2.5 0 012.5-2.5h1v.5h-1a2 2 0 00-1.414.586zm12.401-2.823l.354-.354-.354.354c.329.328.513.773.513 1.237v1.5a1.75 1.75 0 01-1.75 1.75h-4.5A1.75 1.75 0 018 3.75v-1.5A1.75 1.75 0 019.75.5h4.5c.464 0 .91.184 1.237.513z" fill="#030303" stroke="#030303"/></svg>
